assets/icon-script.svg

<svg fill="none" height="24" viewBox="0 0 24 24" width="24" xmlns="http://www.w3.org/2000/svg"><path d="m11.397 2.89604c1.1618-1.1613 3.0454-1.16157 4.207 0 1.1616 1.16163 1.1613 3.04526 0 4.20703l-.3974.39649 2.0254 2.02539c1.3665 1.36675 1.3665 3.58245 0 4.94925l-5.629 5.6289c-.0029.0029-.0068.0049-.0097.0078s-.0049.0068-.0078.0098l-.044.0439-.0019-.002c-1.1659 1.1008-3.00242 1.0816-4.14358-.0595-1.16136-1.1618-1.16162-3.0454 0-4.2071l1.39648-1.3964-2.39648-2.3965c-1.16136-1.1618-1.16162-3.04543 0-4.20706.00602-.00602.01249-.01161.01855-.01757zm-3.29395 13.70706c-.7711.7711-.77083 2.0217 0 2.7929.7683.7683 2.01125.7703 2.78325.0079.772-.7817.77-2.0403-.0079-2.8184l-1.37887-1.3789zm1.79297-8.00003c-.77127-.77082-2.02187-.7711-2.79297 0-.7711.77111-.77083 2.02173 0 2.79293l4.48245 4.4825c.5437.5438.8322 1.2451.8711 1.957l4.0683-4.0684c.976-.9762.976-2.5589 0-3.5351l-2.0254-2.02541-4.1455 4.14651h-.001l-.70698-.7071.25-.25c.77128-.7712.77128-2.02169 0-2.79293zm5.00098-5c-.7711-.77105-2.0217-.77078-2.793 0l-3.43064 3.42969c.70229.0408 1.39304.32683 1.92964.86328.5365.5365.8223 1.22752.8633 1.92969l3.4307-3.42969c.7708-.77125.771-2.02186 0-2.79297z" fill="#000"/></svg>

<svg width="24" height="24" viewBox="0 0 24 24" fill="none" xmlns="http://www.w3.org/2000/svg">
<path d="M11.397 2.89604C12.5588 1.73474 14.4424 1.73447 15.604 2.89604C16.7656 4.05767 16.7653 5.9413 15.604 7.10307L15.2066 7.49956L17.232 9.52495C18.5985 10.8917 18.5985 13.1074 17.232 14.4742L11.603 20.1031C11.6001 20.106 11.5962 20.108 11.5933 20.1109C11.5904 20.1138 11.5884 20.1177 11.5855 20.1207L11.5415 20.1646L11.5396 20.1626C10.3737 21.2634 8.53718 21.2442 7.39602 20.1031C6.23466 18.9413 6.2344 17.0577 7.39602 15.896L8.7925 14.4996L6.39602 12.1031C5.23466 10.9413 5.2344 9.05767 6.39602 7.89604C6.40204 7.89002 6.40851 7.88443 6.41457 7.87847L11.397 2.89604ZM8.10305 16.6031C7.33195 17.3742 7.33222 18.6248 8.10305 19.396C8.87135 20.1643 10.1143 20.1663 10.8863 19.4039C11.6583 18.6222 11.6563 17.3636 10.8784 16.5855L9.49953 15.2066L8.10305 16.6031ZM9.89602 8.60307C9.12475 7.83225 7.87415 7.83197 7.10305 8.60307C6.33195 9.37418 6.33222 10.6248 7.10305 11.396L11.5855 15.8785C12.1292 16.4223 12.4177 17.1236 12.4566 17.8355L16.5249 13.7671C17.5009 12.7909 17.5009 11.2082 16.5249 10.232L14.4995 8.20659L10.354 12.3531H10.353L9.64602 11.646L9.89602 11.396C10.6673 10.6248 10.6673 9.37431 9.89602 8.60307ZM14.897 3.60307C14.1259 2.83202 12.8753 2.83229 12.104 3.60307L8.67336 7.03276C9.37565 7.07356 10.0664 7.35959 10.603 7.89604C11.1395 8.43254 11.4253 9.12356 11.4663 9.82573L14.897 6.39604C15.6678 5.62479 15.668 4.37418 14.897 3.60307Z" fill="black"/>
</svg>
